;FLAVOR:Marlin
;TIME:20576
;Filament used: 20.4036m
;Layer height: 0.28
;MINX:3.308
;MINY:3.416
;MINZ:0.28
;MAXX:214.357
;MAXY:214.189
;MAXZ:8.96
;Generated with Cura_SteamEngine 4.8.0
M140 S60
M105
M190 S60
M104 S200
M105
M109 S200
M82 ;absolute extrusion mode
; Ender 3 Custom Start G-code
G92 E0 ; Reset Extruder
G28 ; Home all axes
G1 Z2.0 F3000 ; Move Z Axis up little to prevent scratching of Heat Bed
G1 X0.1 Y20 Z0.3 F5000.0 ; Move to start position
G1 X0.1 Y200.0 Z0.3 F1500.0 E15 ; Draw the first line
G1 X0.4 Y200.0 Z0.3 F5000.0 ; Move to side a little
G1 X0.4 Y20 Z0.3 F1500.0 E30 ; Draw the second line
G92 E0 ; Reset Extruder
G1 Z2.0 F3000 ; Move Z Axis up little to prevent scratching of Heat Bed
G1 X5 Y20 Z0.3 F5000.0 ; Move over to prevent blob squish
G92 E0
G92 E0
G1 F1500 E-6.5
;LAYER_COUNT:32
;LAYER:0
M107
;MESH:vshapedbottom-v0.stl
G0 F6000 X53.047 Y212.902 Z0.28
;TYPE:WALL-INNER
G1 F1500 E0
G1 F1200 X51.813 Y212.825 E0.05757
G1 X4.689 Y145.526 E3.88316
G1 X5.056 Y144.284 E3.94347
G1 X143.85 Y5.708 E13.07611
G1 X144.901 Y4.757 E13.14211
G1 X146.193 Y4.968 E13.20307
G1 X212.321 Y51.272 E16.96209
G1 X212.962 Y52.414 E17.02307
G1 X212.444 Y53.687 E17.08707
G1 X155.151 Y135.509 E21.73821
G1 X134.751 Y155.691 E23.07442
G1 X53.047 Y212.902 E27.71887
G0 F6000 X53.162 Y213.31
;TYPE:WALL-OUTER
G1 F1200 X51.596 Y213.212 E27.79193
G1 X4.251 Y145.597 E31.63548
G1 X4.701 Y144.073 E31.70947
G1 X143.567 Y5.425 E40.84686
G1 X144.776 Y4.331 E40.92278
G1 X146.347 Y4.588 E40.99691
G1 X212.626 Y50.997 E44.76449
G1 X213.405 Y52.386 E44.83865
G1 X212.796 Y53.881 E44.91382
G1 X155.46 Y135.766 E49.5685
G1 X135.006 Y156.001 E50.90824
G1 X53.162 Y213.31 E55.56065
G0 F6000 X53.043 Y212.887
G0 X52.936 Y212.504
;TYPE:SKIN
G1 F1200 X52.025 Y212.447 E55.60315
G1 X5.116 Y145.456 E59.41125
G1 X5.403 Y144.489 E59.45822
G1 X144.119 Y5.991 E68.58573
G1 X145.024 Y5.172 E68.64256
G1 X146.041 Y5.338 E68.69055
G1 X212.025 Y51.542 E72.44141
G1 X212.53 Y52.441 E72.48942
G1 X212.101 Y53.496 E72.54245
G1 X154.851 Y135.257 E77.19011
G1 X134.501 Y155.389 E78.52304
G1 X52.936 Y212.504 E83.15962
G0 F6000 X52.207 Y212.296
G1 F1200 X51.9 Y211.989 E83.17983
G0 F6000 X52.811 Y212.334
G1 F1200 X50.578 Y210.101 E83.32688
G0 F6000 X50.217 Y210.353
G0 X48.896 Y208.466
G0 X49.257 Y208.214
G1 F1200 X53.179 Y212.136 E83.58515
G0 F6000 X53.511 Y211.903
G1 F1200 X47.936 Y206.328 E83.95227
G0 F6000 X47.575 Y206.58
G0 X46.253 Y204.692
G0 X46.614 Y204.44
G1 F1200 X53.844 Y211.671 E84.42841
G0 F6000 X54.177 Y211.437
G1 F1200 X45.293 Y202.554 E85.01341
G0 F6000 X44.932 Y202.806
G0 X43.611 Y200.919
G0 X43.972 Y200.667
G1 F1200 X54.51 Y211.205 E85.70735
G0 F6000 X54.842 Y210.971
G1 F1200 X42.65 Y198.779 E86.51022
G0 F6000 X42.289 Y199.031
G0 X40.968 Y197.145
G0 X41.329 Y196.893
G1 F1200 X55.175 Y210.739 E87.422
G0 F6000 X55.508 Y210.506
G1 F1200 X40.008 Y195.005 E88.44273
G0 F6000 X39.647 Y195.257
G0 X38.326 Y193.371
G0 X38.687 Y193.119
G1 F1200 X55.84 Y210.273 E89.57232
G0 F6000 X56.173 Y210.04
G1 F1200 X37.365 Y191.232 E90.81086
G0 F6000 X37.004 Y191.484
G0 X35.683 Y189.597
G0 X36.044 Y189.345
G1 F1200 X56.506 Y209.807 E92.15832
G0 F6000 X56.839 Y209.574
G1 F1200 X34.723 Y187.458 E93.6147
G0 F6000 X34.362 Y187.71
G0 X33.04 Y185.822
G0 X33.401 Y185.57
G1 F1200 X57.171 Y209.341 E95.18002
G0 F6000 X57.504 Y209.108
G1 F1200 X32.08 Y183.684 E96.85424
G0 F6000 X31.719 Y183.936
G0 X30.398 Y182.049
G0 X30.759 Y181.797
G1 F1200 X57.837 Y208.875 E98.63737
G0 F6000 X58.17 Y208.642
G1 F1200 X29.438 Y179.91 E100.52942
G0 F6000 X29.077 Y180.162
G0 X27.755 Y178.275
G0 X28.116 Y178.023
G1 F1200 X58.502 Y208.409 E102.53039
G0 F6000 X58.835 Y208.176
G1 F1200 X26.795 Y176.136 E104.64028
G0 F6000 X26.434 Y176.388
G0 X25.113 Y174.501
G0 X25.474 Y174.249
G1 F1200 X59.167 Y207.943 E106.85905
G0 F6000 X59.5 Y207.71
G1 F1200 X24.152 Y172.362 E109.18678
G0 F6000 X23.791 Y172.614
G0 X22.47 Y170.727
G0 X22.831 Y170.475
G1 F1200 X59.833 Y207.477 E111.62343
G0 F6000 X60.166 Y207.244
G1 F1200 X21.51 Y168.588 E114.16899
G0 F6000 X21.149 Y168.84
G0 X19.828 Y166.953
G0 X20.189 Y166.701
G1 F1200 X60.498 Y207.011 E116.82344
G0 F6000 X60.831 Y206.778
G1 F1200 X18.867 Y164.814 E119.58684
G0 F6000 X18.506 Y165.066
G0 X17.185 Y163.18
G0 X17.546 Y162.928
G1 F1200 X61.164 Y206.545 E122.45913
G0 F6000 X61.497 Y206.312
G1 F1200 X16.225 Y161.04 E125.44036
G0 F6000 X15.864 Y161.292
G0 X14.542 Y159.405
G0 X14.903 Y159.153
G1 F1200 X61.829 Y206.079 E128.53052
G0 F6000 X62.162 Y205.846
G1 F1200 X13.582 Y157.266 E131.7296
G0 F6000 X13.221 Y157.518
G0 X11.9 Y155.631
G0 X12.261 Y155.379
G1 F1200 X62.494 Y205.613 E135.03756
G0 F6000 X62.827 Y205.38
G1 F1200 X10.94 Y153.493 E138.45441
G0 F6000 X10.579 Y153.745
G0 X9.257 Y151.857
G0 X9.618 Y151.605
G1 F1200 X63.16 Y205.147 E141.98024
G0 F6000 X63.493 Y204.914
G1 F1200 X8.297 Y149.719 E145.61496
G0 F6000 X7.936 Y149.971
G0 X6.615 Y148.083
G0 X6.976 Y147.831
G1 F1200 X63.826 Y204.681 E149.35863
G0 F6000 X64.158 Y204.448
G1 F1200 X5.654 Y145.944 E153.21121
G0 F6000 X5.386 Y145.11
G1 F1200 X64.491 Y204.215 E157.10338
G0 F6000 X64.824 Y203.982
G1 F1200 X5.515 Y144.674 E161.00895
G0 F6000 X5.763 Y144.356
G1 F1200 X65.157 Y203.749 E164.92011
G0 F6000 X65.489 Y203.516
G1 F1200 X6.046 Y144.073 E168.83453
G0 F6000 X6.329 Y143.79
G1 F1200 X65.822 Y203.284 E172.75228
G0 F6000 X66.154 Y203.05
G1 F1200 X6.612 Y143.508 E176.67322
G0 F6000 X6.895 Y143.225
G1 F1200 X66.487 Y202.818 E180.59749
G0 F6000 X66.82 Y202.584
G1 F1200 X7.178 Y142.943 E184.52499
G0 F6000 X7.462 Y142.66
G1 F1200 X67.153 Y202.352 E188.45577
G0 F6000 X67.485 Y202.118
G1 F1200 X7.744 Y142.378 E192.38979
G0 F6000 X8.027 Y142.095
G1 F1200 X67.818 Y201.886 E196.32713
G0 F6000 X68.15 Y201.652
G1 F1200 X8.311 Y141.813 E200.26763
G0 F6000 X8.594 Y141.53
G1 F1200 X68.483 Y201.42 E204.21145
G0 F6000 X68.816 Y201.186
G1 F1200 X8.877 Y141.247 E208.15854
G0 F6000 X9.159 Y140.964
G1 F1200 X69.149 Y200.954 E212.10898
G0 F6000 X69.481 Y200.72
G1 F1200 X9.443 Y140.682 E216.06259
G0 F6000 X9.726 Y140.399
G1 F1200 X69.814 Y200.488 E220.01952
G0 F6000 X70.147 Y200.255
G1 F1200 X10.009 Y140.116 E223.97974
G0 F6000 X10.292 Y139.834
G1 F1200 X70.48 Y200.022 E227.94322
G0 F6000 X70.813 Y199.789
G1 F1200 X10.575 Y139.551 E231.91
G0 F6000 X10.858 Y139.268
G1 F1200 X71.145 Y199.556 E235.88003
G0 F6000 X71.478 Y199.323
G1 F1200 X11.141 Y138.986 E239.85333
G0 F6000 X11.424 Y138.703
G1 F1200 X71.81 Y199.09 E243.82988
G0 F6000 X72.143 Y198.857
G1 F1200 X11.707 Y138.421 E247.8097
G0 F6000 X11.991 Y138.138
G1 F1200 X72.476 Y198.624 E251.79277
G0 F6000 X72.809 Y198.391
G1 F1200 X12.273 Y137.856 E255.77913
G0 F6000 X12.556 Y137.573
G1 F1200 X73.141 Y198.158 E259.76876
G0 F6000 X73.474 Y197.925
G1 F1200 X12.84 Y137.291 E263.76161
G0 F6000 X13.123 Y137.008
G1 F1200 X73.807 Y197.692 E267.75776
G0 F6000 X74.14 Y197.459
G1 F1200 X13.406 Y136.725 E271.7572
G0 F6000 X13.688 Y136.442
G1 F1200 X74.472 Y197.226 E275.75993
G0 F6000 X74.805 Y196.993
G1 F1200 X13.972 Y136.16 E279.76588
G0 F6000 X14.255 Y135.877
G1 F1200 X75.137 Y196.76 E283.7751
G0 F6000 X75.47 Y196.527
G1 F1200 X14.538 Y135.594 E287.78761
G0 F6000 X14.821 Y135.312
G1 F1200 X75.803 Y196.294 E291.80338
G0 F6000 X76.136 Y196.061
G1 F1200 X15.104 Y135.029 E295.82244
G0 F6000 X15.387 Y134.746
G1 F1200 X76.468 Y195.828 E299.84476
G0 F6000 X76.801 Y195.595
G1 F1200 X15.67 Y134.464 E303.87034
G0 F6000 X15.953 Y134.181
G1 F1200 X77.134 Y195.362 E307.89921
G0 F6000 X77.467 Y195.129
G1 F1200 X16.236 Y133.899 E311.93135
G0 F6000 X16.52 Y133.617
G1 F1200 X77.8 Y194.897 E315.96674
G0 F6000 X78.132 Y194.663
G1 F1200 X16.802 Y133.334 E320.00539
G0 F6000 X17.085 Y133.051
G1 F1200 X78.465 Y194.431 E324.04737
G0 F6000 X78.797 Y194.197
G1 F1200 X17.369 Y132.769 E328.09251
G0 F6000 X17.652 Y132.486
G1 F1200 X79.13 Y193.965 E332.14097
G0 F6000 X79.463 Y193.731
G1 F1200 X17.935 Y132.203 E336.1927
G0 F6000 X18.217 Y131.92
G1 F1200 X79.796 Y193.499 E340.24778
G0 F6000 X80.128 Y193.265
G1 F1200 X18.501 Y131.638 E344.30602
G0 F6000 X18.784 Y131.355
G1 F1200 X80.461 Y193.033 E348.36759
G0 F6000 X80.794 Y192.799
G1 F1200 X19.067 Y131.072 E352.43242
G0 F6000 X19.35 Y130.79
G1 F1200 X81.127 Y192.567 E356.50054
G0 F6000 X81.459 Y192.333
G1 F1200 X19.633 Y130.507 E360.57189
G0 F6000 X19.916 Y130.225
G1 F1200 X81.792 Y192.101 E364.64653
G0 F6000 X82.124 Y191.867
G1 F1200 X20.199 Y129.942 E368.7244
G0 F6000 X20.482 Y129.66
G1 F1200 X82.457 Y191.635 E372.80555
G0 F6000 X82.79 Y191.401
G1 F1200 X20.765 Y129.377 E376.88997
G0 F6000 X21.049 Y129.095
G1 F1200 X83.123 Y191.169 E380.97765
G0 F6000 X83.455 Y190.935
G1 F1200 X21.331 Y128.812 E385.06859
G0 F6000 X21.614 Y128.529
G1 F1200 X83.788 Y190.703 E389.16286
G0 F6000 X84.12 Y190.469
G1 F1200 X21.898 Y128.247 E393.26028
G0 F6000 X22.181 Y127.964
G1 F1200 X84.454 Y190.237 E397.36106
G0 F6000 X84.787 Y190.004
G1 F1200 X22.464 Y127.681 E401.46514
G0 F6000 X22.746 Y127.398
G1 F1200 X85.119 Y189.771 E405.57251
G0 F6000 X85.452 Y189.538
G1 F1200 X23.03 Y127.116 E409.6831
G0 F6000 X23.313 Y126.833
G1 F1200 X85.784 Y189.305 E413.79696
G0 F6000 X86.117 Y189.072
G1 F1200 X23.596 Y126.55 E417.91411
G0 F6000 X23.879 Y126.268
G1 F1200 X86.45 Y188.839 E422.03451
G0 F6000 X86.783 Y188.606
G1 F1200 X24.162 Y125.985 E426.15821
G0 F6000 X24.445 Y125.703
G1 F1200 X87.115 Y188.373 E430.28514
G0 F6000 X87.448 Y188.14
G1 F1200 X24.728 Y125.42 E434.41536
G0 F6000 X25.011 Y125.138
G1 F1200 X87.78 Y187.907 E438.5488
G0 F6000 X88.113 Y187.674
G1 F1200 X25.294 Y124.855 E442.68554
G0 F6000 X25.578 Y124.573
G1 F1200 X88.446 Y187.441 E446.82551
G0 F6000 X88.779 Y187.208
G1 F1200 X25.861 Y124.29 E450.96877
G0 F6000 X26.143 Y124.007
G1 F1200 X89.111 Y186.975 E455.11532
G0 F6000 X89.444 Y186.742
G1 F1200 X26.427 Y123.725 E459.26509
G0 F6000 X26.71 Y123.442
G1 F1200 X89.777 Y186.509 E463.41816
G0 F6000 X90.11 Y186.276
G1 F1200 X26.993 Y123.159 E467.57453
G0 F6000 X27.275 Y122.876
G1 F1200 X90.442 Y186.043 E471.73418
G0 F6000 X90.775 Y185.81
G1 F1200 X27.559 Y122.594 E475.89706
G0 F6000 X27.842 Y122.311
G1 F1200 X91.107 Y185.577 E480.0632
G0 F6000 X91.44 Y185.344
G1 F1200 X28.125 Y122.028 E484.23264
G0 F6000 X28.408 Y121.746
G1 F1200 X91.773 Y185.111 E488.40533
G0 F6000 X92.106 Y184.878
G1 F1200 X28.691 Y121.463 E492.58132
G0 F6000 X28.974 Y121.181
G1 F1200 X92.439 Y184.646 E496.76059
G0 F6000 X92.771 Y184.412
G1 F1200 X29.257 Y120.898 E500.9431
G0 F6000 X29.54 Y120.616
G1 F1200 X93.104 Y184.18 E505.1289
G0 F6000 X93.437 Y183.946
G1 F1200 X29.823 Y120.333 E509.31796
G0 F6000 X30.107 Y120.051
G1 F1200 X93.77 Y183.714 E513.51027
G0 F6000 X94.102 Y183.48
G1 F1200 X30.39 Y119.768 E517.70582
G0 F6000 X30.672 Y119.485
G1 F1200 X94.435 Y183.248 E521.90472
G0 F6000 X94.767 Y183.014
G1 F1200 X30.956 Y119.203 E526.10678
G0 F6000 X31.239 Y118.92
G1 F1200 X95.1 Y182.782 E530.31217
G0 F6000 X95.433 Y182.548
G1 F1200 X31.522 Y118.637 E534.52082
G0 F6000 X31.804 Y118.354
G1 F1200 X95.766 Y182.316 E538.73283
G0 F6000 X96.098 Y182.082
G1 F1200 X32.088 Y118.072 E542.94799
G0 F6000 X32.371 Y117.789
G1 F1200 X96.431 Y181.85 E547.16649
G0 F6000 X96.764 Y181.616
G1 F1200 X32.654 Y117.507 E551.38821
G0 F6000 X32.937 Y117.224
G1 F1200 X97.097 Y181.384 E555.61325
G0 F6000 X97.429 Y181.15
G1 F1200 X33.22 Y116.942 E559.84149
G0 F6000 X33.503 Y116.659
G1 F1200 X97.762 Y180.918 E564.07306
G0 F6000 X98.094 Y180.684
G1 F1200 X33.786 Y116.377 E568.30782
G0 F6000 X34.069 Y116.094
G1 F1200 X98.427 Y180.452 E572.5459
G0 F6000 X98.76 Y180.218
G1 F1200 X34.352 Y115.811 E576.78724
G0 F6000 X34.636 Y115.529
G1 F1200 X99.093 Y179.986 E581.03185
G0 F6000 X99.426 Y179.753
G1 F1200 X34.919 Y115.246 E585.27974
G0 F6000 X35.201 Y114.963
G1 F1200 X99.758 Y179.52 E589.53093
G0 F6000 X100.091 Y179.287
G1 F1200 X35.485 Y114.681 E593.78535
G0 F6000 X35.768 Y114.398
G1 F1200 X100.424 Y179.054 E598.04306
G0 F6000 X100.757 Y178.821
G1 F1200 X36.051 Y114.115 E602.30406
G0 F6000 X36.333 Y113.832
G1 F1200 X101.089 Y178.588 E606.56835
G0 F6000 X101.422 Y178.355
G1 F1200 X36.617 Y113.55 E610.83587
G0 F6000 X36.9 Y113.267
G1 F1200 X101.754 Y178.122 E615.10665
G0 F6000 X102.087 Y177.889
G1 F1200 X37.183 Y112.985 E619.38069
G0 F6000 X37.466 Y112.702
G1 F1200 X102.42 Y177.656 E623.65802
G0 F6000 X102.753 Y177.423
G1 F1200 X37.749 Y112.42 E627.93861
G0 F6000 X38.032 Y112.137
G1 F1200 X103.085 Y177.19 E632.22246
G0 F6000 X103.418 Y176.957
G1 F1200 X38.315 Y111.855 E636.50957
G0 F6000 X38.598 Y111.572
G1 F1200 X103.75 Y176.724 E640.79994
G0 F6000 X104.083 Y176.491
G1 F1200 X38.881 Y111.289 E645.09361
G0 F6000 X39.165 Y111.007
G1 F1200 X104.416 Y176.258 E649.3905
G0 F6000 X104.749 Y176.025
G1 F1200 X39.448 Y110.724 E653.69068
G0 F6000 X39.73 Y110.441
G1 F1200 X105.081 Y175.792 E657.99415
G0 F6000 X105.414 Y175.559
G1 F1200 X40.014 Y110.159 E662.30086
G0 F6000 X40.297 Y109.876
G1 F1200 X105.747 Y175.326 E666.61085
G0 F6000 X106.08 Y175.093
G1 F1200 X40.58 Y109.593 E670.92414
G0 F6000 X40.862 Y109.31
G1 F1200 X106.412 Y174.86 E675.24072
G0 F6000 X106.745 Y174.627
G1 F1200 X41.146 Y109.028 E679.56052
G0 F6000 X41.429 Y108.745
G1 F1200 X107.078 Y174.395 E683.88365
G0 F6000 X107.41 Y174.161
G1 F1200 X41.712 Y108.463 E688.20998
G0 F6000 X41.995 Y108.18
G1 F1200 X107.743 Y173.929 E692.53963
G0 F6000 X108.076 Y173.695
G1 F1200 X42.278 Y107.898 E696.87251
G0 F6000 X42.561 Y107.615
G1 F1200 X108.409 Y173.463 E701.20871
G0 F6000 X108.741 Y173.229
G1 F1200 X42.845 Y107.333 E705.54808
G0 F6000 X43.127 Y107.05
G1 F1200 X109.074 Y172.997 E709.8908
G0 F6000 X109.407 Y172.763
G1 F1200 X43.41 Y106.767 E714.23678
G0 F6000 X43.694 Y106.485
G1 F1200 X109.74 Y172.531 E718.58602
G0 F6000 X110.072 Y172.297
G1 F1200 X43.977 Y106.202 E722.93849
G0 F6000 X44.259 Y105.919
G1 F1200 X110.405 Y172.065 E727.29432
G0 F6000 X110.737 Y171.831
G1 F1200 X44.543 Y105.637 E731.65331
G0 F6000 X44.826 Y105.354
G1 F1200 X111.07 Y171.599 E736.01562
G0 F6000 X111.403 Y171.365
G1 F1200 X45.109 Y105.071 E740.38119
G0 F6000 X45.392 Y104.788
G1 F1200 X111.736 Y171.133 E744.75009
G0 F6000 X112.068 Y170.899
G1 F1200 X45.675 Y104.506 E749.12218
G0 F6000 X45.958 Y104.224
G1 F1200 X112.401 Y170.667 E753.49757
G0 F6000 X112.734 Y170.433
G1 F1200 X46.241 Y103.941 E757.87621
G0 F6000 X46.524 Y103.659
G1 F1200 X113.067 Y170.201 E762.25815
G0 F6000 X113.399 Y169.967
G1 F1200 X46.807 Y103.376 E766.64332
G0 F6000 X47.09 Y103.093
G1 F1200 X113.732 Y169.735 E771.0318
G0 F6000 X114.065 Y169.502
G1 F1200 X47.374 Y102.811 E775.42352
G0 F6000 X47.656 Y102.528
G1 F1200 X114.397 Y169.269 E779.81853
G0 F6000 X114.73 Y169.036
G1 F1200 X47.939 Y102.245 E784.21683
G0 F6000 X48.223 Y101.963
G1 F1200 X115.063 Y168.803 E788.61836
G0 F6000 X115.396 Y168.57
G1 F1200 X48.506 Y101.68 E793.02318
G0 F6000 X48.788 Y101.397
G1 F1200 X115.728 Y168.337 E797.43129
G0 F6000 X116.061 Y168.104
G1 F1200 X49.072 Y101.115 E801.84263
G0 F6000 X49.355 Y100.832
G1 F1200 X116.394 Y167.871 E806.25727
G0 F6000 X116.727 Y167.638
G1 F1200 X49.638 Y100.549 E810.67519
G0 F6000 X49.921 Y100.267
G1 F1200 X117.059 Y167.405 E815.09634
G0 F6000 X117.392 Y167.172
G1 F1200 X50.204 Y99.984 E819.52079
G0 F6000 X50.487 Y99.702
G1 F1200 X117.724 Y166.939 E823.94846
G0 F6000 X118.057 Y166.706
G1 F1200 X50.77 Y99.419 E828.37942
G0 F6000 X51.053 Y99.137
G1 F1200 X118.39 Y166.473 E832.81365
G0 F6000 X118.723 Y166.24
G1 F1200 X51.336 Y98.854 E837.25116
G0 F6000 X51.619 Y98.571
G1 F1200 X119.055 Y166.007 E841.69194
G0 F6000 X119.388 Y165.774
G1 F1200 X51.903 Y98.289 E846.13594
G0 F6000 X52.185 Y98.006
G1 F1200 X119.72 Y165.541 E850.58324
G0 F6000 X120.054 Y165.308
G1 F1200 X52.468 Y97.723 E855.03386
G0 F6000 X52.752 Y97.441
G1 F1200 X120.386 Y165.075 E859.48767
G0 F6000 X120.719 Y164.842
G1 F1200 X53.035 Y97.158 E863.94478
G0 F6000 X53.317 Y96.875
G1 F1200 X121.051 Y164.609 E868.40518
G0 F6000 X121.384 Y164.376
G1 F1200 X53.601 Y96.593 E872.8688
G0 F6000 X53.884 Y96.31
G1 F1200 X121.717 Y164.144 E877.33576
G0 F6000 X122.05 Y163.91
G1 F1200 X54.167 Y96.027 E881.80597
G0 F6000 X54.45 Y95.745
G1 F1200 X122.383 Y163.678 E886.27947
G0 F6000 X122.715 Y163.444
