;FLAVOR:Marlin
;TIME:22799
;Filament used: 13.8473m
;Layer height: 0.2
;MINX:4.251
;MINY:4.331
;MINZ:0.2
;MAXX:213.405
;MAXY:213.31
;MAXZ:8
;Generated with Cura_SteamEngine 4.8.0
M140 S60
M105
M190 S60
M104 S200
M105
M109 S200
M82 ;absolute extrusion mode
; Ender 3 Custom Start G-code
G92 E0 ; Reset Extruder
G28 ; Home all axes
G1 Z2.0 F3000 ; Move Z Axis up little to prevent scratching of Heat Bed
G1 X0.1 Y20 Z0.3 F5000.0 ; Move to start position
G1 X0.1 Y200.0 Z0.3 F1500.0 E15 ; Draw the first line
G1 X0.4 Y200.0 Z0.3 F5000.0 ; Move to side a little
G1 X0.4 Y20 Z0.3 F1500.0 E30 ; Draw the second line
G92 E0 ; Reset Extruder
G1 Z2.0 F3000 ; Move Z Axis up little to prevent scratching of Heat Bed
G1 X5 Y20 Z0.3 F5000.0 ; Move over to prevent blob squish
G92 E0
G92 E0
G1 F1500 E-6.5
;LAYER_COUNT:40
;LAYER:0
M107
;MESH:vshapedtop-v0.stl
G0 F6000 X128.688 Y64.25 Z0.2
;TYPE:WALL-INNER
G1 F1500 E0
G1 F1200 X137.409 Y51.798 E0.50563
G1 X137.523 Y51.635 E0.51224
G1 X137.36 Y51.521 E0.51651
G1 X124.908 Y42.801 E1.02212
G1 X116.074 Y55.416 E1.53435
G1 X128.688 Y64.25 E2.04655
G0 F6000 X128.59 Y63.693
;TYPE:WALL-OUTER
G1 F1200 X136.966 Y51.733 E2.53219
G1 X125.006 Y43.358 E3.01781
G1 X116.631 Y55.318 E3.50343
G1 X128.59 Y63.693 E3.98903
G1 F1500 E-2.51097
G0 F6000 X128.834 Y63.866
G0 X137.642 Y51.462
G0 X139.593 Y48.677
G0 X139.816 Y48.359
;TYPE:WALL-INNER
G1 F1500 E3.98903
G1 F1200 X148.535 Y35.907 E4.49462
G1 X135.92 Y27.074 E5.00683
G1 X127.087 Y39.688 E5.51901
G1 X139.539 Y48.408 E6.02462
G1 X139.702 Y48.522 E6.03123
G1 X139.816 Y48.359 E6.0355
G0 F6000 X139.604 Y47.965
;TYPE:WALL-OUTER
G1 F1200 X147.978 Y36.005 E6.5211
G1 X136.018 Y27.631 E7.00671
G1 X127.644 Y39.59 E7.49229
G1 X139.604 Y47.965 E7.97791
G1 F1500 E1.47791
G0 F6000 X139.848 Y48.138
G0 X148.655 Y35.735
G0 X150.606 Y32.951
G0 X150.714 Y32.795
;TYPE:WALL-INNER
G1 F1500 E7.97791
G1 F1200 X159.548 Y20.18 E8.49013
G1 X147.096 Y11.459 E8.99576
G1 X146.933 Y11.345 E9.00238
G1 X146.819 Y11.508 E9.00665
G1 X138.099 Y23.961 E9.51228
G1 X150.714 Y32.795 E10.02451
G0 F6000 X150.616 Y32.238
;TYPE:WALL-OUTER
G1 F1200 X158.991 Y20.278 E10.51013
G1 X147.031 Y11.902 E10.99577
G1 X138.656 Y23.863 E11.48143
G1 X150.616 Y32.238 E11.96705
G1 F1500 E5.46705
G0 F6000 X150.86 Y32.411
G0 X150.887 Y32.914
G0 X153.672 Y34.865
G0 X166.442 Y43.807
;TYPE:WALL-INNER
G1 F1500 E11.96705
G1 F1200 X175.275 Y31.192 E12.47925
G1 X162.824 Y22.472 E12.98484
G1 X162.661 Y22.358 E12.99145
G1 X162.547 Y22.521 E12.99572
G1 X153.941 Y34.811 E13.49474
G1 X153.827 Y34.974 E13.50136
G1 X153.99 Y35.088 E13.50563
G1 X166.442 Y43.807 E14.01122
G0 F6000 X166.344 Y43.25
;TYPE:WALL-OUTER
G1 F1200 X174.718 Y31.29 E14.49682
G1 X162.759 Y22.915 E14.98242
G1 X154.384 Y34.876 E15.46807
G1 X166.344 Y43.25 E15.95367
G1 F1500 E9.45367
G0 F6000 X166.588 Y43.423
G0 X166.598 Y43.916
G0 X169.398 Y45.878
G0 X182.169 Y54.82
;TYPE:WALL-INNER
G1 F1500 E15.95367
G1 F1200 X191.003 Y42.205 E16.4659
G1 X178.389 Y33.371 E16.9781
G1 X169.668 Y45.823 E17.48372
G1 X169.554 Y45.986 E17.49034
G1 X169.717 Y46.1 E17.49461
G1 X182.169 Y54.82 E18.00022
G0 F6000 X182.071 Y54.263
;TYPE:WALL-OUTER
G1 F1200 X190.446 Y42.303 E18.48584
G1 X178.487 Y33.928 E18.97144
G1 X170.111 Y45.888 E19.45708
G1 X182.071 Y54.263 E19.9427
G1 F1500 E13.4427
G0 F6000 X182.315 Y54.436
G0 X182.44 Y54.765
G0 X185.225 Y56.716
G0 X198.011 Y65.67
;TYPE:WALL-INNER
G1 F1500 E19.9427
G1 F1200 X206.617 Y53.38 E20.44172
G1 X206.731 Y53.217 E20.44834
G1 X206.568 Y53.103 E20.45261
G1 X194.116 Y44.384 E20.9582
G1 X185.282 Y56.999 E21.47042
G1 X197.734 Y65.719 E21.97603
G1 X197.897 Y65.833 E21.98265
G1 X198.011 Y65.67 E21.98692
G0 F6000 X197.799 Y65.276
;TYPE:WALL-OUTER
G1 F1200 X206.174 Y53.315 E22.47257
G1 X194.214 Y44.941 E22.95817
G1 X185.839 Y56.901 E23.4438
G1 X197.799 Y65.276 E23.92942
G1 F1500 E17.42942
G0 F6000 X198.043 Y65.449
G0 X197.789 Y65.989
G0 X195.827 Y68.789
G0 X186.999 Y81.397
;TYPE:WALL-INNER
G1 F1500 E23.92942
G1 F1200 X195.718 Y68.945 E24.43501
G1 X183.103 Y60.112 E24.94722
G1 X174.27 Y72.726 E25.45939
G1 X186.722 Y81.446 E25.965
G1 X186.885 Y81.56 E25.97162
G1 X186.999 Y81.397 E25.97589
G0 F6000 X186.787 Y81.003
;TYPE:WALL-OUTER
G1 F1200 X195.161 Y69.043 E26.46149
G1 X183.201 Y60.669 E26.9471
G1 X174.827 Y72.628 E27.43267
G1 X186.787 Y81.003 E27.9183
G1 F1500 E21.4183
G0 F6000 X187.031 Y81.176
G0 X186.777 Y81.716
G0 X184.826 Y84.501
G0 X175.872 Y97.288
;TYPE:WALL-INNER
G1 F1500 E27.9183
G1 F1200 X184.706 Y84.673 E28.43052
G1 X172.091 Y75.839 E28.94275
G1 X163.257 Y88.454 E29.45497
G1 X175.872 Y97.288 E29.9672
G0 F6000 X175.774 Y96.731
;TYPE:WALL-OUTER
G1 F1200 X184.149 Y84.771 E30.45282
G1 X172.189 Y76.396 E30.93844
G1 X163.814 Y88.356 E31.42407
G1 X175.774 Y96.731 E31.90969
G1 F1500 E25.40969
G0 F6000 X176.018 Y96.904
G0 X163.496 Y88.411
G0 X163.199 Y88.172
G0 X160.415 Y86.221
G0 X160.259 Y86.112
;TYPE:WALL-INNER
G1 F1500 E31.90969
G1 F1200 X168.978 Y73.66 E32.41528
G1 X156.363 Y64.826 E32.92751
G1 X147.643 Y77.278 E33.43312
G1 X147.529 Y77.441 E33.43973
G1 X147.692 Y77.555 E33.444
G1 X159.982 Y86.161 E33.94302
G1 X160.145 Y86.275 E33.94964
G1 X160.259 Y86.112 E33.95391
G0 F6000 X160.047 Y85.718
;TYPE:WALL-OUTER
G1 F1200 X168.421 Y73.758 E34.43951
G1 X156.461 Y65.383 E34.92513
G1 X148.086 Y77.343 E35.41076
G1 X160.047 Y85.718 E35.89641
G1 F1500 E29.39641
G0 F6000 X160.291 Y85.891
G0 X169.097 Y73.487
G0 X171.048 Y70.702
G0 X171.157 Y70.547
;TYPE:WALL-INNER
G1 F1500 E35.89641
G1 F1200 X179.877 Y58.096 E36.40199
G1 X179.991 Y57.933 E36.40861
G1 X179.828 Y57.819 E36.41287
G1 X167.538 Y49.213 E36.9119
G1 X167.375 Y49.099 E36.91851
G1 X167.261 Y49.262 E36.92278
G1 X158.542 Y61.714 E37.42837
G1 X171.157 Y70.547 E37.94058
G0 F6000 X171.059 Y69.99
;TYPE:WALL-OUTER
G1 F1200 X179.434 Y58.031 E38.42617
G1 X167.473 Y49.656 E38.91182
G1 X159.099 Y61.616 E39.39743
G1 X171.059 Y69.99 E39.88303
G1 F1500 E33.38303
G0 F6000 X171.303 Y70.163
G0 X158.37 Y61.595
G0 X155.601 Y59.655
G0 X155.429 Y59.535
;TYPE:WALL-INNER
G1 F1500 E39.88303
G1 F1200 X164.263 Y46.92 E40.39526
G1 X151.648 Y38.086 E40.90748
G1 X142.814 Y50.701 E41.41971
G1 X155.429 Y59.535 E41.93193
G0 F6000 X155.331 Y58.978
;TYPE:WALL-OUTER
G1 F1200 X163.706 Y47.018 E42.41756
G1 X151.746 Y38.643 E42.90318
G1 X143.371 Y50.603 E43.3888
G1 X155.331 Y58.978 E43.87443
G1 F1500 E37.37443
G0 F6000 X155.575 Y59.151
G0 X155.31 Y59.707
G0 X153.359 Y62.491
G0 X144.417 Y75.262
;TYPE:WALL-INNER
G1 F1500 E43.87443
G1 F1200 X153.25 Y62.647 E44.38663
G1 X140.635 Y53.814 E44.89884
G1 X131.802 Y66.429 E45.41104
G1 X144.417 Y75.262 E45.92325
G0 F6000 X144.319 Y74.705
;TYPE:WALL-OUTER
G1 F1200 X152.693 Y62.745 E46.40885
G1 X140.733 Y54.371 E46.89446
G1 X132.359 Y66.331 E47.38006
G1 X144.319 Y74.705 E47.86567
G1 F1500 E41.36567
G0 F6000 X144.563 Y74.878
G0 X144.308 Y75.417
G0 X144.111 Y73.517
G0 X140.53 Y78.628
G0 X133.098 Y89.245
G0 X129.48 Y94.409
G0 X131.344 Y93.93
G0 X122.391 Y106.718
;TYPE:WALL-INNER
G1 F1500 E47.86567
G1 F1200 X131.225 Y94.103 E48.37789
G1 X118.61 Y85.269 E48.89012
G1 X109.776 Y97.884 E49.40234
G1 X122.391 Y106.718 E49.91457
G0 F6000 X122.293 Y106.161
;TYPE:WALL-OUTER
G1 F1200 X130.668 Y94.201 E50.40019
G1 X118.708 Y85.826 E50.88581
G1 X110.333 Y97.786 E51.37144
G1 X122.293 Y106.161 E51.85706
G1 F1500 E45.35706
G0 F6000 X122.537 Y106.334
G0 X109.62 Y97.776
G0 X106.82 Y95.814
G0 X106.664 Y95.705
;TYPE:WALL-INNER
G1 F1500 E51.85706
G1 F1200 X115.497 Y83.09 E52.36927
G1 X102.882 Y74.257 E52.88147
G1 X94.162 Y86.709 E53.38708
G1 X94.048 Y86.872 E53.3937
G1 X94.211 Y86.986 E53.39797
G1 X106.664 Y95.705 E53.90359
G0 F6000 X106.566 Y95.148
;TYPE:WALL-OUTER
G1 F1200 X114.94 Y83.188 E54.38919
G1 X102.98 Y74.814 E54.87479
G1 X94.605 Y86.774 E55.36042
G1 X106.566 Y95.148 E55.84605
G1 F1500 E49.34605
G0 F6000 X106.81 Y95.321
G0 X115.617 Y82.918
G0 X117.568 Y80.134
G0 X117.676 Y79.978
;TYPE:WALL-INNER
G1 F1500 E55.84605
G1 F1200 X126.51 Y67.363 E56.35827
G1 X113.895 Y58.529 E56.8705
G1 X105.061 Y71.144 E57.38272
G1 X117.676 Y79.978 E57.89495
G0 F6000 X117.578 Y79.421
;TYPE:WALL-OUTER
G1 F1200 X125.953 Y67.461 E58.38057
G1 X113.993 Y59.086 E58.8662
G1 X105.618 Y71.046 E59.35182
G1 X117.578 Y79.421 E59.83744
G1 F1500 E53.33744
G0 F6000 X117.822 Y79.594
G0 X117.849 Y80.097
G0 X120.634 Y82.048
G0 X133.404 Y90.99
;TYPE:WALL-INNER
G1 F1500 E59.83744
G1 F1200 X142.237 Y78.376 E60.34962
G1 X129.785 Y69.655 E60.85525
G1 X129.623 Y69.541 E60.86184
G1 X129.509 Y69.704 E60.86611
G1 X120.903 Y81.994 E61.36513
G1 X120.789 Y82.157 E61.37174
G1 X120.952 Y82.271 E61.37601
G1 X133.404 Y90.99 E61.8816
G0 F6000 X133.306 Y90.433
;TYPE:WALL-OUTER
G1 F1200 X141.68 Y78.474 E62.36718
G1 X129.721 Y70.098 E62.8528
G1 X121.346 Y82.059 E63.33845
G1 X133.306 Y90.433 E63.82405
G1 F1500 E57.32405
G0 F6000 X133.55 Y90.606
G0 X133.56 Y91.099
G0 X136.36 Y93.061
G0 X149.131 Y102.003
;TYPE:WALL-INNER
G1 F1500 E63.82405
G1 F1200 X157.852 Y89.551 E64.32968
G1 X157.966 Y89.388 E64.33629
G1 X157.803 Y89.274 E64.34056
G1 X145.351 Y80.554 E64.84617
G1 X136.63 Y93.006 E65.3518
G1 X136.516 Y93.169 E65.35842
G1 X136.679 Y93.283 E65.36269
G1 X149.131 Y102.003 E65.8683
G0 F6000 X149.033 Y101.446
;TYPE:WALL-OUTER
G1 F1200 X157.409 Y89.486 E66.35394
G1 X145.449 Y81.111 E66.83956
G1 X137.073 Y93.071 E67.3252
G1 X149.033 Y101.446 E67.81083
G1 F1500 E61.31083
G0 F6000 X149.277 Y101.619
G0 X149.418 Y101.959
G0 X152.187 Y103.899
G0 X164.973 Y112.853
;TYPE:WALL-INNER
G1 F1500 E67.81083
G1 F1200 X173.579 Y100.563 E68.30985
G1 X173.693 Y100.4 E68.31646
G1 X173.53 Y100.286 E68.32073
G1 X161.078 Y91.567 E68.82632
G1 X152.245 Y104.181 E69.3385
G1 X164.697 Y112.902 E69.84413
G1 X164.859 Y113.016 E69.85072
G1 X164.973 Y112.853 E69.85499
G0 F6000 X164.761 Y112.459
;TYPE:WALL-OUTER
G1 F1200 X173.136 Y100.498 E70.34064
G1 X161.176 Y92.124 E70.82624
G1 X152.802 Y104.083 E71.31182
G1 X164.761 Y112.459 E71.79743
G1 F1500 E65.29743
G0 F6000 X165.005 Y112.632
G0 X164.753 Y113.173
G0 X162.802 Y115.958
G0 X153.847 Y128.743
;TYPE:WALL-INNER
G1 F1500 E71.79743
G1 F1200 X162.68 Y116.129 E72.30961
G1 X150.065 Y107.295 E72.82184
G1 X141.345 Y119.747 E73.32745
G1 X141.231 Y119.91 E73.33406
G1 X141.394 Y120.024 E73.33833
G1 X153.847 Y128.743 E73.84395
G0 F6000 X153.749 Y128.186
;TYPE:WALL-OUTER
G1 F1200 X162.123 Y116.227 E74.32953
G1 X150.163 Y107.852 E74.81515
G1 X141.788 Y119.812 E75.30077
G1 X153.749 Y128.186 E75.7864
G1 F1500 E69.2864
G0 F6000 X153.993 Y128.359
G0 X141.075 Y119.802
G0 X138.275 Y117.84
G0 X138.119 Y117.731
;TYPE:WALL-INNER
G1 F1500 E75.7864
G1 F1200 X146.839 Y105.279 E76.29201
G1 X146.953 Y105.116 E76.29863
G1 X146.79 Y105.002 E76.3029
G1 X134.5 Y96.396 E76.80192
G1 X134.337 Y96.282 E76.80853
G1 X134.223 Y96.445 E76.8128
G1 X125.504 Y108.897 E77.31839
G1 X138.119 Y117.731 E77.83062
G0 F6000 X138.021 Y117.174
;TYPE:WALL-OUTER
G1 F1200 X146.396 Y105.214 E78.31624
G1 X134.435 Y96.839 E78.80189
G1 X126.061 Y108.799 E79.2875
G1 X138.021 Y117.174 E79.77312
G1 F1500 E73.27312
G0 F6000 X138.265 Y117.347
G0 X136.443 Y116.766
G0 X137.266 Y115.59
G0 X114.85 Y134.408
G0 X116.773 Y137.271
G0 X106.209 Y144.666
G0 X104.834 Y142.818
G0 X100.091 Y146.8
G0 X101.046 Y148.284
G0 X90.482 Y155.678
G0 X90.073 Y155.21
G0 X84.76 Y159.673
G0 X85.583 Y160.847
G0 X74.448 Y168.436
;TYPE:WALL-INNER
G1 F1500 E79.77312
G1 F1200 X87.063 Y159.602 E80.28535
G1 X78.229 Y146.987 E80.79757
G1 X65.614 Y155.821 E81.3098
G1 X74.448 Y168.436 E81.82202
G0 F6000 X74.546 Y167.879
;TYPE:WALL-OUTER
G1 F1200 X86.506 Y159.504 E82.30764
G1 X78.131 Y147.544 E82.79327
G1 X66.171 Y155.919 E83.27889
G1 X74.546 Y167.879 E83.76451
G1 F1500 E77.26451
G0 F6000 X74.3 Y168.05
G0 X74.276 Y168.556
G0 X71.506 Y170.495
G0 X71.335 Y170.615
;TYPE:WALL-INNER
G1 F1500 E83.76451
G1 F1200 X62.501 Y158 E84.27674
G1 X49.886 Y166.834 E84.78897
G1 X58.72 Y179.449 E85.30119
G1 X71.335 Y170.615 E85.81342
G0 F6000 X70.778 Y170.517
;TYPE:WALL-OUTER
G1 F1200 X62.403 Y158.557 E86.29904
G1 X50.443 Y166.932 E86.78466
G1 X58.818 Y178.892 E87.27029
G1 X70.778 Y170.517 E87.75591
G1 F1500 E81.25591
G0 F6000 X70.949 Y170.763
G0 X62.458 Y158.239
G0 X56.618 Y161.912
G0 X57.441 Y163.086
G0 X51.031 Y159.938
G0 X48.013 Y161.976
G0 X44.173 Y156.571
G0 X31.279 Y150.243
G0 X32.102 Y151.417
G0 X33.582 Y150.172
;TYPE:WALL-INNER
G1 F1500 E87.75591
G1 F1200 X24.748 Y137.557 E88.26813
G1 X12.133 Y146.391 E88.78036
G1 X20.967 Y159.006 E89.29258
G1 X33.582 Y150.172 E89.80481
G0 F6000 X33.025 Y150.074
;TYPE:WALL-OUTER
G1 F1200 X24.65 Y138.114 E90.29043
G1 X12.69 Y146.489 E90.77606
G1 X21.065 Y158.449 E91.26168
G1 X33.025 Y150.074 E91.7473
G1 F1500 E85.2473
G0 F6000 X33.196 Y150.32
G0 X33.736 Y150.062
G0 X36.522 Y148.112
G0 X49.31 Y139.159
;TYPE:WALL-INNER
G1 F1500 E91.7473
G1 F1200 X40.476 Y126.544 E92.25953
G1 X27.861 Y135.378 E92.77175
G1 X36.695 Y147.993 E93.28398
G1 X49.31 Y139.159 E93.7962
G0 F6000 X48.753 Y139.061
;TYPE:WALL-OUTER
G1 F1200 X40.378 Y127.101 E94.28183
G1 X28.418 Y135.476 E94.76745
G1 X36.793 Y147.436 E95.25307
G1 X48.753 Y139.061 E95.7387
G1 F1500 E89.2387
G0 F6000 X48.924 Y139.307
G0 X49.367 Y138.876
G0 X52.136 Y136.938
G0 X52.308 Y136.818
;TYPE:WALL-INNER
G1 F1500 E95.7387
G1 F1200 X52.422 Y136.981 E95.74531
G1 X52.585 Y136.867 E95.74958
G1 X65.037 Y128.147 E96.25519
G1 X56.318 Y115.695 E96.76078
G1 X56.204 Y115.532 E96.7674
G1 X56.041 Y115.646 E96.77167
G1 X43.589 Y124.366 E97.27728
G1 X52.308 Y136.818 E97.78287
G0 F6000 X52.52 Y136.424
;TYPE:WALL-OUTER
G1 F1200 X64.48 Y128.049 E98.26849
G1 X56.106 Y116.089 E98.75409
G1 X44.146 Y124.464 E99.23972
G1 X52.52 Y136.424 E99.72532
G1 F1500 E93.22532
G0 F6000 X52.274 Y136.595
G0 X58.806 Y132.267
G0 X65.208 Y128.027
G0 X67.978 Y126.088
G0 X68.15 Y125.968
;TYPE:WALL-INNER
G1 F1500 E99.72532
G1 F1200 X80.765 Y117.134 E100.23755
G1 X71.931 Y104.519 E100.74977
G1 X59.316 Y113.353 E101.262
G1 X68.15 Y125.968 E101.77422
G0 F6000 X68.248 Y125.411
;TYPE:WALL-OUTER
G1 F1200 X80.208 Y117.036 E102.25985
G1 X71.833 Y105.076 E102.74547
G1 X59.873 Y113.451 E103.23109
G1 X68.248 Y125.411 E103.71672
G1 F1500 E97.21672
G0 F6000 X68.002 Y125.582
G0 X73.914 Y121.692
G0 X80.936 Y117.014
G0 X83.706 Y115.075
G0 X83.878 Y114.955
;TYPE:WALL-INNER
G1 F1500 E103.71672
G1 F1200 X96.33 Y106.235 E104.22232
G1 X96.493 Y106.121 E104.22894
G1 X96.379 Y105.958 E104.23321
G1 X87.659 Y93.507 E104.73879
G1 X75.207 Y102.226 E105.24438
G1 X75.044 Y102.34 E105.251
G1 X75.158 Y102.503 E105.25527
G1 X83.878 Y114.955 E105.76088
G0 F6000 X83.976 Y114.398
;TYPE:WALL-OUTER
G1 F1200 X95.936 Y106.023 E106.2465
G1 X87.561 Y94.064 E106.7321
G1 X75.601 Y102.438 E107.2177
G1 X83.976 Y114.398 E107.70332
G1 F1500 E101.20332
G0 F6000 X83.73 Y114.569
G0 X83.988 Y115.109
G0 X85.938 Y117.895
G0 X94.891 Y130.683
;TYPE:WALL-INNER
G1 F1500 E107.70332
G1 F1200 X107.506 Y121.849 E108.21555
G1 X98.672 Y109.234 E108.72777
G1 X86.057 Y118.068 E109.24
G1 X94.891 Y130.683 E109.75222
G0 F6000 X94.989 Y130.126
;TYPE:WALL-OUTER
G1 F1200 X106.949 Y121.751 E110.23785
G1 X98.574 Y109.791 E110.72347
G1 X86.614 Y118.166 E111.20909
G1 X94.989 Y130.126 E111.69472
G1 F1500 E105.19472
G0 F6000 X94.743 Y130.297
G0 X95.011 Y130.854
G0 X96.96 Y133.64
G0 X105.903 Y146.411
;TYPE:WALL-INNER
G1 F1500 E111.69472
G1 F1200 X118.518 Y137.577 E112.20694
G1 X109.684 Y124.962 E112.71917
G1 X97.069 Y133.796 E113.23139
G1 X105.903 Y146.411 E113.74362
G0 F6000 X106.001 Y145.854
;TYPE:WALL-OUTER
G1 F1200 X117.961 Y137.479 E114.22924
G1 X109.586 Y125.519 E114.71486
G1 X97.626 Y133.894 E115.20049
G1 X106.001 Y145.854 E115.68611
G1 F1500 E109.18611
G0 F6000 X105.755 Y146.025
G0 X106.013 Y146.565
G0 X107.973 Y149.367
G0 X116.916 Y162.138
;TYPE:WALL-INNER
G1 F1500 E115.68611
G1 F1200 X129.368 Y153.419 E116.1917
G1 X129.531 Y153.305 E116.19832
G1 X129.417 Y153.142 E116.20259
G1 X120.697 Y140.69 E116.7082
G1 X108.245 Y149.409 E117.21379
G1 X108.082 Y149.523 E117.2204
G1 X108.196 Y149.686 E117.22467
G1 X116.916 Y162.138 E117.73028
G0 F6000 X117.014 Y161.581
;TYPE:WALL-OUTER
G1 F1200 X128.974 Y153.207 E118.21588
G1 X120.599 Y141.247 E118.70151
G1 X108.639 Y149.621 E119.18711
